X: 364
T: The Bugle Horn
%R: reel
Z: 2014 John Chambers <jc:trillian.mit.edu>
B: Preston "Twenty four Country Dances for the Year 1799" p.162 #2
F: http://www.vwml.org/browse/browse-collections-dance-tune-books/browse-prestons1799# 2014-8-10
M: 2/4
L: 1/8
K: D
a |\
affd | d2AA | dfeg | f>gf>a |\
affd | d2AA | eeef | d3 :|
|: d |\
d2Af | d2Af | dfdf | d2Aa |\
affd | d2Af | eeef | d3 :|
% - - - - - - - - - - - - - - - - - - - - - - - - -
%%begintext align
%% Right hands across .| Left hands back
%% again :| lead down the middle foot it :|.
%% Allemand :|:
%%endtext
% - - - - - - - - - - - - - - - - - - - - - - - - -

%%sep 1 1 500
%%sep 1 1 500
